X:1
T:076 - Amigo Verdadeiro
T:Letra: Marianne Nunn (1779-1847)
T:Trad.: Richard Holden (1828-1886)
T:Música: Hubert Platt Main (1839 - 1925)
M:4/4
L:1/8
Q:1/4=110
K:Dmaj
V:1
"D"A3A A2F2 | "G"d3B "D"A2F2 | "G"B4 "D"A3F | "A"F6z2 | "D"A3A A2F2 | "G"d3B "D"A2F2 | (A2d2) "A7"e3d | "D"d6z2 | "A"E2E2E2F2 | "A7"A3G G2E2 | "D"F2F2F2G2 | B3A A2F2 | d2d2d3d | "G"e2d2d2B2 | "D/A"A4d2"A"c2 | "D"d6z2 |]
w: 1.~Há um~a-mi-go ver-da-dei-ro, Cris-to,~o Se-nhor, Que so-freu so-bre~o ma-dei-ro A_ nos-sa dor. Es-te~a-mi-go mo-ri-bun-do, Pa-de-cen-do pe-lo mun-do, Pa-ten-tei-a~a-mor pro-fun-do. Que gran-de~a-mor!  
w: 2.~Vi-da~e-ter-na~é co-nhe-cê-lo, Cris-to,~o Se-nhor. Quem qui-ser, de-pres-sa ve-nha Ao_ Re-den-tor. Por nós ou-tros der-ra-ma-va O seu san-gue, pois a-ma-va Os per-di-dos que cha-ma-va. Que gran-dea-mor!  
w: 3.~On-tem, ho-je~e pa-ra sem-pre Cris-to,~o Se-nhor, É o mes-mo bom a-mi-go Do_ pe-ca-dor. É ma-ná pa-ra~o de-ser-to, Gui-a no mai-or a-per-to; Seu so-cor-ro sem-pre~é cer-to. Que gran-dea-mor!          				                    
W: 
W: 
W: 1. Há um amigo verdadeiro,
W: Cristo, o Senhor,
W: Que sofreu sobre o madeiro
W: A nossa dor.
W: Este amigo moribundo,
W: Padecendo pelo mundo,
W: Patenteia amor profundo.
W: Que grande amor!
W: 
W: 2. Vida eterna é conhecê-lo,
W: Cristo, o Senhor.
W: Quem quiser, depressa venha
W: Ao Redentor.
W: Por nós outros derramava
W: O seu sangue, pois amava
W: Os perdidos que chamava.
W: Que grande amor!
W: 
W: 
W: 
W: 3. Ontem, hoje e para sempre
W: Cristo, o Senhor,
W: É o mesmo bom amigo
W: Do pecador.
W: É maná para o deserto,
W: Guia no maior aperto;
W: Seu socorro sempre é certo.
W: Que grande amor!
W:         
W: 





